X: 17
T: Mist Covered Mountain, The
C: Junior Crehan
Z: Sean Perry
S: https://thesession.org/tunes/256#setting50794
R: jig
M: 6/8
L: 1/8
K: Gdor
D|: DGG GAc | dGG GFD | {D}F2 F FGA | {d}cAG {FG}FDC |
DGG GAc | dGG GAc | def {cd}cAF |1 AGF G2D :|2 AGF G2g ||
|:gfd g2a | gfd dcA | GFD F2G | AGA GFD |
[1gfd g2a | gfd dcA | GFD F2G | AGF G2g :|
[2DCD F2G |AGF ABc | def cAF |AGF G2D ||

%-------------------- TUNE SEPARATOR --------------------%

